packages/icons/svg/Outline/smartphone.svg

<svg fill="none" height="24" viewBox="0 0 24 24" width="24" xmlns="http://www.w3.org/2000/svg"><path clip-rule="evenodd" d="m9.5 5.99993h5c.553 0 1 .447 1 1s-.447 1-1 1h-5c-.553 0-1-.447-1-1s.447-1 1-1zm1 10.49997c0-.828.672-1.5 1.5-1.5s1.5.672 1.5 1.5-.672 1.5-1.5 1.5-1.5-.672-1.5-1.5zm7.5 2.5002c0 .552-.448 1-1 1h-9.99998c-.552 0-1-.448-1-1v-14.00004c0-.55199.448-.99999 1-.99999h9.99998c.552 0 1 .448 1 .99999zm-1-17.0001h-10c-1.654 0-3 1.346-3 3v14c0 1.654 1.346 3 3 3h10c1.654 0 3-1.346 3-3v-14c0-1.654-1.346-3-3-3z" fill="#6b7280" fill-rule="evenodd"/></svg>

<svg width="24" height="24" viewBox="0 0 24 24" fill="none" xmlns="http://www.w3.org/2000/svg">
<g id="Icon/Outline/smartphone">
<path id="Mask" fill-rule="evenodd" clip-rule="evenodd" d="M9.5 6H14.5C15.053 6 15.5 6.447 15.5 7C15.5 7.553 15.053 8 14.5 8H9.5C8.947 8 8.5 7.553 8.5 7C8.5 6.447 8.947 6 9.5 6ZM10.5 16.5C10.5 15.672 11.172 15 12 15C12.828 15 13.5 15.672 13.5 16.5C13.5 17.328 12.828 18 12 18C11.172 18 10.5 17.328 10.5 16.5ZM18 19C18 19.552 17.552 20 17 20H7C6.448 20 6 19.552 6 19V5C6 4.448 6.448 4 7 4H17C17.552 4 18 4.448 18 5V19ZM17 2H7C5.346 2 4 3.346 4 5V19C4 20.654 5.346 22 7 22H17C18.654 22 20 20.654 20 19V5C20 3.346 18.654 2 17 2Z" fill="#000000"/>
</g>
</svg>
